X: 26772
T: Millenium Ceilihouse
R: reel
M: 4/4
K: Gmajor
D3 E|:G2 BG A2 Bd|eaaf gedc|BGGG AdBA|GBAG EGDE|
GABG AABd|eaaf gede|gedB GABd|~g2 ed BA A2:|
|:~g2 ed BG ~G2|DGBG dGBd|ea ~a2 abag|eaag fdef|
turn!g2 ed BG G2|DGBd gfga|1 b2 ag egdB|BAFA ~G2 Bd:|2 b2 ag egde|~g2 ga gfed||
|:~B2 BA Bddg|edBd egge|~B2 BA Bddg|egdB BAAd|BAGA Bd ~d2|
[1 edBd egga|bgag egdB|BAFA G2 GA:|
[2 edBd egge|dBGE DEGA|(3Bcd ed BdBA||

